X:1
T:Title
%%score { ( 1 3 ) | ( 2 4 ) }
L:1/8
Q:1/4=122
M:3/4
K:Eb
V:1 treble nm="Grand Piano"
V:3 treble 
V:2 bass 
V:4 bass 
V:1
 [GB]4 [EG]2 | [GB]4 [EG]2 | [Ge]2 [Bd]2 [Ac]2 | [GB]4 G2 | E4 E2 | [DF]4 [EG]2 | B2 z2 z2 | %7
 [DF]6 | [B,DB]4 [B,EG]2 | [B,FB]4 [B,EG]2 | [Ge]2 z2 z2 | [B,EB]4 [B,EG]2 | [B,_DE]4 [A,CE]2 | %13
 [F,DF]2 [EG]2 [B,FA]2 | [B,EG]4 [A,DF]2 | [G,E]6 |] %16
V:2
 [E,B,]4 [E,B,]2 | [E,E]4 [E,B,]2 | [E,B,]4 [E,E]2 | [E,E]4 [E,B,E]2 | [C,A,]4 [E,G,B,]2 | %5
 [B,,B,]4 [E,B,]2 | z2 A2 =A,,2 | B,,6 | B,,4 E,2 | D,4 E,2 | z2[K:treble] A2 A,2 | G,4 E,2 | %12
 G,,4 C,2 | z2 E,2 B,,2 | B,,4 B,,2 | E,6 |] %16
V:3
 x6 | x6 | x6 | x6 | x6 | x6 | C4 [CEG]2 | x6 | x6 | x6 | E2- [Ed]2 [EAc]2 | x6 | x6 | x6 | x6 | %15
 x6 |] %16
V:4
 x6 | x6 | x6 | x6 | x6 | x6 | [A,,F,]4 z2 | x6 | x6 | x6 | E,4[K:treble] z2 | x6 | x6 | B,,4 z2 | %14
 x6 | x6 |] %16

